paper-roll-outline.svg

<svg fill="currentColor" viewBox="0 0 24 24"><path d="M9 3C5.69 3 3.14 5.69 3 9v12h9v-7.54c1.1.99 2.5 1.54 4 1.54 3.31 0 6-2.69 6-6s-2.69-6-6-6zm0 2h2.54C10.55 6.1 10 7.5 10 9v3H9v1h1v6H5v-6h1v-1H5V9c0-2.21 1.79-4 4-4m7 0c2.21 0 4 1.79 4 4s-1.79 4-4 4-4-1.79-4-4 1.79-4 4-4m0 2.25c-.97 0-1.75.78-1.75 1.75s.78 1.75 1.75 1.75 1.75-.78 1.75-1.75-.78-1.75-1.75-1.75M7 12v1h1v-1z"/></svg>

<svg  viewBox="0 0 24 24" fill="currentColor"><path  d="M9 3C5.69 3 3.14 5.69 3 9V21H12V13.46C13.1 14.45 14.5 15 16 15C19.31 15 22 12.31 22 9C22 5.69 19.31 3 16 3H9M9 5H11.54C10.55 6.1 10 7.5 10 9V12H9V13H10V19H5V13H6V12H5V9C5 6.79 6.79 5 9 5M16 5C18.21 5 20 6.79 20 9C20 11.21 18.21 13 16 13C13.79 13 12 11.21 12 9C12 6.79 13.79 5 16 5M16 7.25C15.03 7.25 14.25 8.03 14.25 9C14.25 9.97 15.03 10.75 16 10.75C16.97 10.75 17.75 9.97 17.75 9C17.75 8.03 16.97 7.25 16 7.25M7 12V13H8V12H7Z"/></svg>
